icons/pnpm.svg

<?xml version="1.0" encoding="UTF-8"?>
<svg clip-rule="evenodd" fill-rule="evenodd" stroke-linejoin="round" stroke-miterlimit="2" version="1.1" viewBox="0 0 300 300" xmlns="http://www.w3.org/2000/svg">
 <g transform="matrix(.98233 0 0 .98233 2.6479 2.6499)" fill-rule="nonzero">
  <g transform="matrix(.94312 0 0 .94312 8.5246 8.532)">
   <path d="m195.02 30h75v75h-75zm-82.515 0h75v75h-75zm-82.5 0h75v75h-75zm165.02 82.5h75v75h-75z" fill="#ffb300"/>
   <path d="m112.5 112.5h75v75h-75zm0 82.5h75v75h-75zm82.515 0h75v75h-75zm-165.02 0h75v75h-75z" fill="#e0e0e0"/>
  </g>
 </g>
</svg>

<svg version="1.1" viewBox="0 0 300 300" xmlns="http://www.w3.org/2000/svg" fill-rule="evenodd" clip-rule="evenodd" stroke-linejoin="round" stroke-miterlimit="2"><g fill-rule="nonzero"><path fill="#f9ad00" d="M195.015 30h75v75h-75zM112.5 30h75v75h-75zM30 30h75v75H30zM195.015 112.5h75v75h-75z"/><path fill="#4e4e4e" d="M112.5 112.5h75v75h-75zM112.5 195h75v75h-75zM195.015 195h75v75h-75zM30 195h75v75H30z"/></g></svg>
